_uploads/ornament-monument.svg

<svg width="40" height="40" viewBox="0 0 40 40" fill="none" xmlns="http://www.w3.org/2000/svg">
<path fill-rule="evenodd" clip-rule="evenodd" d="M20 39C30.4934 39 39 30.4934 39 20C39 9.50659 30.4934 1 20 1C9.50659 1 1 9.50659 1 20C1 30.4934 9.50659 39 20 39ZM40 20C40 31.0457 31.0457 40 20 40C8.9543 40 0 31.0457 0 20C0 8.9543 8.9543 0 20 0C31.0457 0 40 8.9543 40 20Z" fill="black"/>
<path d="M9.83998 3.35999L8.22998 35.58" stroke="black" stroke-miterlimit="10"/>
<path d="M32.9999 34.5L26.4999 38.5L25.1099 1.16998L29.9999 3L32.9999 34.5Z" fill="black"/>
</svg>

<svg width="40" height="40" fill="none" xmlns="http://www.w3.org/2000/svg"><path fill-rule="evenodd" clip-rule="evenodd" d="M20 39c10.493 0 19-8.507 19-19S30.493 1 20 1 1 9.507 1 20s8.507 19 19 19zm20-19c0 11.046-8.954 20-20 20S0 31.046 0 20 8.954 0 20 0s20 8.954 20 20z" fill="#000"/><path d="M9.84 3.36L8.23 35.58" stroke="#000" stroke-miterlimit="10"/><path d="M33 34.5l-6.5 4-1.39-37.33L30 3l3 31.5z" fill="#000"/></svg>
